X:1
T:B minor Abraham Wood, 1786
T:Isaac Watts, 1709 (Hymn 106, Book 2)    86. 86. (C. M.)
T:Walpole
T:Transcribed from Norman's Federal Harmony, 1790.
%%score [ 1 2 3 4 ]
L:1/8
Q:1/4=140
M:2/2
K:D
V:1 treble nm="Tr." snm="Tr."
V:2 treble nm="C." snm="C."
V:3 treble-8 nm="T." snm="T."
V:4 bass nm="B." snm="B."
V:1
"^2. O, ____        how  I   hate              those  lusts     of    mine     That  cru – ci – fied          my           God! Those sins that pierced and nailed his""^1. O, ____        if   my  soul               was  formed  for    woe,     How would  I   vent          my          sighs!      Re-pen-tance should like rivers" B4- | %1
 B4 B2 A2 | d6 c2 | B4 ^A4 | B8 | d4 c2 B2 | A4 (A3 G) | F8 | F4 B2 c2 | B2 c2 c2 B2 | %10
"^flow    From both my strea       –        ming   eyes.""^flesh     Fast   to   the    fa            –          tal   wood!" ^A8 | %11
 B4 c2 d2 | (B>c d2 c2) ^A2 | B8 | z8 | z8 | z8 | %17
 z4"^Hung    on  the cursed    tree,""^My        heart has so decreed;" ^A4 | B2 e2 c2 c2 | d8 |: %20
"^And groaned ___________________________ a    –   way  a     dy – ing      life                                      For  thee,  my  soul,  for thee, ______    for  thee.""^Nor will _________________________________   I      spare the  guil – ty    things                                 That made my Sa–vior  bleed _______   for   me." B4 (c4 | %21
 d3 e f3 e | d6) cd | e6 c2 | B4 (c2 B2) | ^A6 z2 | z8 | z4 z2 d2 | B6 B2 | d6 c2 | (d3 c B2) ^A2 | %31
 B8 :| %32
V:2
 F4- | F4 F2 F2 | F6 G2 | F4 F4 | F8 | F4 C2 F2 | ^E4 E4 | F8 | A4 G2 F2 | B2 A2 AG F2 | F8 | %11
 G4 A2 B2 | (F4 G2) F2 | F8 | z8 | z8 | z8 | z4 F4 | F2 G2 F2 F2 | F8 |: F4 (A3 G | F3 G A4 | %22
 G6) ^A2 | G6 G2 | F4 F4 | F6 z2 | z8 | z8 | %28
 z4 z2"^For   thee, my  soul, _______  for   thee.""^That made my  Sa       –      vior bleed." B2 | %29
 F6 G2 | (A3 G F2) F2 | F8 :| %32
V:3
"^2. O, ____        how  I   hate              those  lusts     of    mine     That  cru – ci – fied          my           God! Those sins that pierced and nailed his""^1. O, ____        if   my  soul               was  formed  for    woe,     How would  I   vent          my          sighs!      Re-pen-tance should like rivers" B4- | %1
 B4 d2 c2 | (d3 e f2) e2 | d4 c4 | B8 | B4 A2 F2 | (A3 B) c4 | d8 | f4 B2 A2 | B2 f2 e2 d2 | %10
"^flow    From both my strea       –        ming   eyes.""^flesh     Fast   to   the    fa            –          tal   wood!" c8 | %11
 d4 c2 B2 | (d>c B2 ed) c2 | B8 | z8 | z8 | z8 | %17
 z4"^Hung   on   the  cursed   tree,""^My       heart has so decreed;" c4 | d2 B2 A2 F2 | B8 |: %20
"^And groaned ___________________________ a    –  way   a     dy – ing     life  For  thee,  my  soul,  for Thee;  For thee, my soul,  _______ for   thee.""^Nor will _________________________________  I      spare the  guil–ty  things That made him bleed, That made my Sa-vior bleed _______ for    me." d4 (e3 f | %21
 d3 e c3 d | B6) ^A2 | B6 c2 | d4 (c2 B2) | c6 d2 | B6 d2 | c6 B2 | f6 f2 | d6 e2 | (f3 e d2) c2 | %31
 B8 :| %32
V:4
 B,,4- | B,,4 B,2 F,2 | (D,3 C, B,,2) C,2 | (D,2 E,2) F,4 | B,,8 | B,,4 C,2 D,2 | A,4 A,,4 | D,8 | %8
 D,4 E,2 F,2 | G,2 F,2 A,2 B,2 | F,8 | B,4 A,2 G,2 | (F,>E, D,2 E,2) F,2 | B,,8 | %14
 z4"^'Twas  for  my sins my   dear      -      est    Lord""^Yes,    my   Re-dee-mer,  they ______ shall    die," B,4 | %15
 F,2 E,2 D,2 C,2 | (B,,3 C, D,2) E,2 | F,4 F,4 | D,2 E,2 F,2 F,2 | B,,8 |: B,4 (A,4 | B,4 F,4 | %22
 G,6) F,2 | E,6 E,2 | B,4 (A,2 B,2) | F,6 z2 | %26
 z4 z2"^For  thee,  my  soul,  for Thee;  my soul,  _______  for   thee.""^That made my  Sa – vior bleed, that made ______  him bleed." B,2 | %27
 F,6 F,2 | B,,6 B,2 | B,6 E,2 | (D,3 E, F,2) F,2 | B,,8 :| %32

